apps/www/public/images/launchweek/11/days/d3-dark-mobile.svg

<svg width="349" height="208" viewBox="0 0 349 208" fill="none" xmlns="http://www.w3.org/2000/svg">
<g clip-path="url(#clip0_763_8100)">
<rect width="349" height="208" fill="#171717"/>
<path d="M175.341 104C175.341 122.151 160.627 136.865 142.476 136.865C124.325 136.865 109.61 122.151 109.61 104C109.61 85.849 124.325 71.1348 142.476 71.1348C160.627 71.1348 175.341 85.849 175.341 104Z" stroke="url(#paint0_linear_763_8100)" stroke-width="0.5" stroke-dasharray="0.5 1"/>
<path d="M189.245 104C189.245 129.83 168.305 150.769 142.476 150.769C116.646 150.769 95.7065 129.83 95.7065 104C95.7065 78.1702 116.646 57.231 142.476 57.231C168.305 57.231 189.245 78.1702 189.245 104Z" stroke="url(#paint1_linear_763_8100)" stroke-width="0.5" stroke-dasharray="0.5 1"/>
<path d="M202.975 104C202.975 137.413 175.888 164.499 142.476 164.499C109.063 164.499 81.9766 137.413 81.9766 104C81.9766 70.5873 109.063 43.501 142.476 43.501C175.888 43.501 202.975 70.5873 202.975 104Z" stroke="url(#paint2_linear_763_8100)" stroke-width="0.5" stroke-dasharray="0.5 1"/>
<path d="M216.705 104C216.705 144.996 183.471 178.229 142.476 178.229C101.48 178.229 68.2466 144.996 68.2466 104C68.2466 63.0045 101.48 29.771 142.476 29.771C183.471 29.771 216.705 63.0045 216.705 104Z" stroke="url(#paint3_linear_763_8100)" stroke-width="0.5" stroke-dasharray="0.5 1"/>
<path d="M229.976 104C229.976 152.325 190.801 191.5 142.476 191.5C94.1507 191.5 54.9756 152.325 54.9756 104C54.9756 55.6751 94.1507 16.5 142.476 16.5C190.801 16.5 229.976 55.6751 229.976 104Z" stroke="url(#paint4_linear_763_8100)" stroke-width="0.5" stroke-dasharray="0.5 1"/>
<path d="M242.944 104C242.944 159.487 197.963 204.468 142.476 204.468C86.9885 204.468 42.0073 159.487 42.0073 104C42.0073 48.5129 86.9885 3.53174 142.476 3.53174C197.963 3.53174 242.944 48.5129 242.944 104Z" stroke="url(#paint5_linear_763_8100)" stroke-width="0.5" stroke-dasharray="0.5 1"/>
<path d="M256.369 104C256.369 166.901 205.377 217.893 142.476 217.893C79.5742 217.893 28.5825 166.901 28.5825 104C28.5825 41.0986 79.5742 -9.89307 142.476 -9.89307C205.377 -9.89307 256.369 41.0986 256.369 104Z" stroke="url(#paint6_linear_763_8100)" stroke-width="0.5" stroke-dasharray="0.5 1"/>
<path d="M270.708 104C270.708 174.821 213.297 232.233 142.476 232.233C71.6545 232.233 14.2427 174.821 14.2427 104C14.2427 33.1789 71.6545 -24.2329 142.476 -24.2329C213.297 -24.2329 270.708 33.1789 270.708 104Z" stroke="url(#paint7_linear_763_8100)" stroke-width="0.5" stroke-dasharray="0.5 1"/>
<path d="M285.354 104C285.354 182.909 221.385 246.878 142.476 246.878C63.5663 246.878 -0.402344 182.909 -0.402344 104C-0.402344 25.0907 63.5663 -38.8779 142.476 -38.8779C221.385 -38.8779 285.354 25.0907 285.354 104Z" stroke="url(#paint8_linear_763_8100)" stroke-width="0.5" stroke-dasharray="0.5 1"/>
<path d="M299.389 104C299.389 190.661 229.136 260.913 142.476 260.913C55.8149 260.913 -14.4375 190.661 -14.4375 104C-14.4375 17.3393 55.8149 -52.9131 142.476 -52.9131C229.136 -52.9131 299.389 17.3393 299.389 104Z" stroke="url(#paint9_linear_763_8100)" stroke-width="0.5" stroke-dasharray="0.5 1"/>
<path d="M315.56 104C315.56 199.592 238.067 277.084 142.476 277.084C46.8839 277.084 -30.6084 199.592 -30.6084 104C-30.6084 8.40836 46.8839 -69.084 142.476 -69.084C238.067 -69.084 315.56 8.40836 315.56 104Z" stroke="url(#paint10_linear_763_8100)" stroke-width="0.5" stroke-dasharray="0.5 1"/>
<path d="M331.425 104C331.425 208.354 246.829 292.949 142.476 292.949C38.1218 292.949 -46.4736 208.354 -46.4736 104C-46.4736 -0.353775 38.1218 -84.9492 142.476 -84.9492C246.829 -84.9492 331.425 -0.353775 331.425 104Z" stroke="url(#paint11_linear_763_8100)" stroke-width="0.5" stroke-dasharray="0.5 1"/>
<path d="M347.727 104C347.727 217.357 255.833 309.251 142.476 309.251C29.1186 309.251 -62.7754 217.357 -62.7754 104C-62.7754 -9.35699 29.1186 -101.251 142.476 -101.251C255.833 -101.251 347.727 -9.35699 347.727 104Z" stroke="url(#paint12_linear_763_8100)" stroke-width="0.5" stroke-dasharray="0.5 1"/>
<path d="M365.292 104C365.292 227.058 265.534 326.816 142.476 326.816C19.4175 326.816 -80.3408 227.058 -80.3408 104C-80.3408 -19.0581 19.4175 -118.816 142.476 -118.816C265.534 -118.816 365.292 -19.0581 365.292 104Z" stroke="url(#paint13_linear_763_8100)" stroke-width="0.5" stroke-dasharray="0.5 1"/>
<path d="M383.711 104C383.711 237.231 275.706 345.236 142.476 345.236C9.24471 345.236 -98.7603 237.231 -98.7603 104C-98.7603 -29.2309 9.24471 -137.236 142.476 -137.236C275.706 -137.236 383.711 -29.2309 383.711 104Z" stroke="url(#paint14_linear_763_8100)" stroke-width="0.5" stroke-dasharray="0.5 1"/>
<path d="M399.685 104C399.685 246.053 284.528 361.209 142.476 361.209C0.422714 361.209 -114.734 246.053 -114.734 104C-114.734 -38.0529 0.422714 -153.209 142.476 -153.209C284.528 -153.209 399.685 -38.0529 399.685 104Z" stroke="url(#paint15_linear_763_8100)" stroke-width="0.5" stroke-dasharray="0.5 1"/>
<rect x="108.701" y="70.2257" width="67.5486" height="67.5486" rx="33.7743" fill="#121212" stroke="#292929" stroke-width="0.5"/>
<circle cx="142.5" cy="104" r="19.8044" fill="#4D4D4D"/>
<circle cx="142.476" cy="104" r="15.25" fill="#B4B4B4"/>
<path fill-rule="evenodd" clip-rule="evenodd" d="M161.7 104C161.7 114.604 153.104 123.2 142.5 123.2C131.896 123.2 123.3 114.604 123.3 104C123.3 93.3962 131.896 84.8 142.5 84.8C153.104 84.8 161.7 93.3962 161.7 104ZM147.3 96.8C147.3 99.451 145.151 101.6 142.5 101.6C139.849 101.6 137.7 99.451 137.7 96.8C137.7 94.1491 139.849 92 142.5 92C145.151 92 147.3 94.1491 147.3 96.8ZM142.5 106.4C137.658 106.4 133.486 109.268 131.589 113.398C134.23 116.461 138.138 118.4 142.5 118.4C146.862 118.4 150.77 116.461 153.411 113.398C151.514 109.268 147.342 106.4 142.5 106.4Z" fill="#292929"/>
<rect x="154.25" y="64.1788" width="136" height="33.2" rx="5.75" fill="#121212" stroke="#4D4D4D" stroke-width="0.5"/>
<path d="M169.284 82.9528C168.57 82.9528 168.063 82.7928 167.764 82.4728C167.476 82.1528 167.332 81.7582 167.332 81.2888V80.8408C167.332 80.3715 167.476 79.9768 167.764 79.6568C168.063 79.3368 168.57 79.1768 169.284 79.1768C169.999 79.1768 170.5 79.3368 170.788 79.6568C171.087 79.9768 171.236 80.3715 171.236 80.8408V81.2888C171.236 81.7582 171.087 82.1528 170.788 82.4728C170.5 82.7928 169.999 82.9528 169.284 82.9528ZM179.878 82.9528C179.163 82.9528 178.657 82.7928 178.358 82.4728C178.07 82.1528 177.926 81.7582 177.926 81.2888V80.8408C177.926 80.3715 178.07 79.9768 178.358 79.6568C178.657 79.3368 179.163 79.1768 179.878 79.1768C180.593 79.1768 181.094 79.3368 181.382 79.6568C181.681 79.9768 181.83 80.3715 181.83 80.8408V81.2888C181.83 81.7582 181.681 82.1528 181.382 82.4728C181.094 82.7928 180.593 82.9528 179.878 82.9528ZM190.472 82.9528C189.757 82.9528 189.251 82.7928 188.952 82.4728C188.664 82.1528 188.52 81.7582 188.52 81.2888V80.8408C188.52 80.3715 188.664 79.9768 188.952 79.6568C189.251 79.3368 189.757 79.1768 190.472 79.1768C191.187 79.1768 191.688 79.3368 191.976 79.6568C192.275 79.9768 192.424 80.3715 192.424 80.8408V81.2888C192.424 81.7582 192.275 82.1528 191.976 82.4728C191.688 82.7928 191.187 82.9528 190.472 82.9528ZM201.066 82.9528C200.351 82.9528 199.844 82.7928 199.546 82.4728C199.258 82.1528 199.114 81.7582 199.114 81.2888V80.8408C199.114 80.3715 199.258 79.9768 199.546 79.6568C199.844 79.3368 200.351 79.1768 201.066 79.1768C201.78 79.1768 202.282 79.3368 202.57 79.6568C202.868 79.9768 203.018 80.3715 203.018 80.8408V81.2888C203.018 81.7582 202.868 82.1528 202.57 82.4728C202.282 82.7928 201.78 82.9528 201.066 82.9528ZM211.659 82.9528C210.945 82.9528 210.438 82.7928 210.139 82.4728C209.851 82.1528 209.707 81.7582 209.707 81.2888V80.8408C209.707 80.3715 209.851 79.9768 210.139 79.6568C210.438 79.3368 210.945 79.1768 211.659 79.1768C212.374 79.1768 212.875 79.3368 213.163 79.6568C213.462 79.9768 213.611 80.3715 213.611 80.8408V81.2888C213.611 81.7582 213.462 82.1528 213.163 82.4728C212.875 82.7928 212.374 82.9528 211.659 82.9528ZM222.253 82.9528C221.538 82.9528 221.032 82.7928 220.733 82.4728C220.445 82.1528 220.301 81.7582 220.301 81.2888V80.8408C220.301 80.3715 220.445 79.9768 220.733 79.6568C221.032 79.3368 221.538 79.1768 222.253 79.1768C222.968 79.1768 223.469 79.3368 223.757 79.6568C224.056 79.9768 224.205 80.3715 224.205 80.8408V81.2888C224.205 81.7582 224.056 82.1528 223.757 82.4728C223.469 82.7928 222.968 82.9528 222.253 82.9528ZM232.847 82.9528C232.132 82.9528 231.626 82.7928 231.327 82.4728C231.039 82.1528 230.895 81.7582 230.895 81.2888V80.8408C230.895 80.3715 231.039 79.9768 231.327 79.6568C231.626 79.3368 232.132 79.1768 232.847 79.1768C233.562 79.1768 234.063 79.3368 234.351 79.6568C234.65 79.9768 234.799 80.3715 234.799 80.8408V81.2888C234.799 81.7582 234.65 82.1528 234.351 82.4728C234.063 82.7928 233.562 82.9528 232.847 82.9528ZM243.441 82.9528C242.726 82.9528 242.219 82.7928 241.921 82.4728C241.633 82.1528 241.489 81.7582 241.489 81.2888V80.8408C241.489 80.3715 241.633 79.9768 241.921 79.6568C242.219 79.3368 242.726 79.1768 243.441 79.1768C244.155 79.1768 244.657 79.3368 244.945 79.6568C245.243 79.9768 245.393 80.3715 245.393 80.8408V81.2888C245.393 81.7582 245.243 82.1528 244.945 82.4728C244.657 82.7928 244.155 82.9528 243.441 82.9528ZM254.034 82.9528C253.32 82.9528 252.813 82.7928 252.514 82.4728C252.226 82.1528 252.082 81.7582 252.082 81.2888V80.8408C252.082 80.3715 252.226 79.9768 252.514 79.6568C252.813 79.3368 253.32 79.1768 254.034 79.1768C254.749 79.1768 255.25 79.3368 255.538 79.6568C255.837 79.9768 255.986 80.3715 255.986 80.8408V81.2888C255.986 81.7582 255.837 82.1528 255.538 82.4728C255.25 82.7928 254.749 82.9528 254.034 82.9528ZM264.628 82.9528C263.913 82.9528 263.407 82.7928 263.108 82.4728C262.82 82.1528 262.676 81.7582 262.676 81.2888V80.8408C262.676 80.3715 262.82 79.9768 263.108 79.6568C263.407 79.3368 263.913 79.1768 264.628 79.1768C265.343 79.1768 265.844 79.3368 266.132 79.6568C266.431 79.9768 266.58 80.3715 266.58 80.8408V81.2888C266.58 81.7582 266.431 82.1528 266.132 82.4728C265.844 82.7928 265.343 82.9528 264.628 82.9528ZM275.222 82.9528C274.507 82.9528 274.001 82.7928 273.702 82.4728C273.414 82.1528 273.27 81.7582 273.27 81.2888V80.8408C273.27 80.3715 273.414 79.9768 273.702 79.6568C274.001 79.3368 274.507 79.1768 275.222 79.1768C275.937 79.1768 276.438 79.3368 276.726 79.6568C277.025 79.9768 277.174 80.3715 277.174 80.8408V81.2888C277.174 81.7582 277.025 82.1528 276.726 82.4728C276.438 82.7928 275.937 82.9528 275.222 82.9528Z" fill="#FAFAFA"/>
</g>
<defs>
<linearGradient id="paint0_linear_763_8100" x1="211.508" y1="24.0977" x2="29.463" y2="24.0977" gradientUnits="userSpaceOnUse">
<stop stop-color="#575E61"/>
<stop offset="1" stop-color="#575E61" stop-opacity="0"/>
</linearGradient>
<linearGradient id="paint1_linear_763_8100" x1="211.508" y1="24.0977" x2="29.463" y2="24.0977" gradientUnits="userSpaceOnUse">
<stop stop-color="#575E61"/>
<stop offset="1" stop-color="#575E61" stop-opacity="0"/>
</linearGradient>
<linearGradient id="paint2_linear_763_8100" x1="211.508" y1="24.0977" x2="29.463" y2="24.0977" gradientUnits="userSpaceOnUse">
<stop stop-color="#575E61"/>
<stop offset="1" stop-color="#575E61" stop-opacity="0"/>
</linearGradient>
<linearGradient id="paint3_linear_763_8100" x1="211.508" y1="24.0977" x2="29.463" y2="24.0977" gradientUnits="userSpaceOnUse">
<stop stop-color="#575E61"/>
<stop offset="1" stop-color="#575E61" stop-opacity="0"/>
</linearGradient>
<linearGradient id="paint4_linear_763_8100" x1="211.508" y1="24.0977" x2="29.463" y2="24.0977" gradientUnits="userSpaceOnUse">
<stop stop-color="#575E61"/>
<stop offset="1" stop-color="#575E61" stop-opacity="0"/>
</linearGradient>
<linearGradient id="paint5_linear_763_8100" x1="211.508" y1="24.0977" x2="29.463" y2="24.0977" gradientUnits="userSpaceOnUse">
<stop stop-color="#575E61"/>
<stop offset="1" stop-color="#575E61" stop-opacity="0"/>
</linearGradient>
<linearGradient id="paint6_linear_763_8100" x1="211.508" y1="24.0977" x2="29.463" y2="24.0977" gradientUnits="userSpaceOnUse">
<stop stop-color="#575E61"/>
<stop offset="1" stop-color="#575E61" stop-opacity="0"/>
</linearGradient>
<linearGradient id="paint7_linear_763_8100" x1="211.508" y1="24.0977" x2="29.463" y2="24.0977" gradientUnits="userSpaceOnUse">
<stop stop-color="#575E61"/>
<stop offset="1" stop-color="#575E61" stop-opacity="0"/>
</linearGradient>
<linearGradient id="paint8_linear_763_8100" x1="211.508" y1="24.0977" x2="29.463" y2="24.0977" gradientUnits="userSpaceOnUse">
<stop stop-color="#575E61"/>
<stop offset="1" stop-color="#575E61" stop-opacity="0"/>
</linearGradient>
<linearGradient id="paint9_linear_763_8100" x1="211.508" y1="24.0977" x2="29.463" y2="24.0977" gradientUnits="userSpaceOnUse">
<stop stop-color="#575E61"/>
<stop offset="1" stop-color="#575E61" stop-opacity="0"/>
</linearGradient>
<linearGradient id="paint10_linear_763_8100" x1="211.508" y1="24.0977" x2="29.463" y2="24.0977" gradientUnits="userSpaceOnUse">
<stop stop-color="#575E61"/>
<stop offset="1" stop-color="#575E61" stop-opacity="0"/>
</linearGradient>
<linearGradient id="paint11_linear_763_8100" x1="211.508" y1="24.0977" x2="29.463" y2="24.0977" gradientUnits="userSpaceOnUse">
<stop stop-color="#575E61"/>
<stop offset="1" stop-color="#575E61" stop-opacity="0"/>
</linearGradient>
<linearGradient id="paint12_linear_763_8100" x1="211.508" y1="24.0977" x2="29.463" y2="24.0977" gradientUnits="userSpaceOnUse">
<stop stop-color="#575E61"/>
<stop offset="1" stop-color="#575E61" stop-opacity="0"/>
</linearGradient>
<linearGradient id="paint13_linear_763_8100" x1="211.508" y1="24.0977" x2="29.463" y2="24.0977" gradientUnits="userSpaceOnUse">
<stop stop-color="#575E61"/>
<stop offset="1" stop-color="#575E61" stop-opacity="0"/>
</linearGradient>
<linearGradient id="paint14_linear_763_8100" x1="211.508" y1="24.0977" x2="29.463" y2="24.0977" gradientUnits="userSpaceOnUse">
<stop stop-color="#575E61"/>
<stop offset="1" stop-color="#575E61" stop-opacity="0"/>
</linearGradient>
<linearGradient id="paint15_linear_763_8100" x1="211.508" y1="24.0977" x2="29.463" y2="24.0977" gradientUnits="userSpaceOnUse">
<stop stop-color="#575E61"/>
<stop offset="1" stop-color="#575E61" stop-opacity="0"/>
</linearGradient>
<clipPath id="clip0_763_8100">
<rect width="349" height="208" fill="white"/>
</clipPath>
</defs>
</svg>

<svg xmlns="http://www.w3.org/2000/svg" width="349" height="208" fill="none" viewBox="0 0 349 208"><g clip-path="url(#a)"><path fill="#171717" d="M0 0h349v208H0z"/><path stroke="url(#b)" stroke-dasharray="0.5 1" stroke-width=".5" d="M175.341 104c0 18.151-14.714 32.865-32.865 32.865S109.61 122.151 109.61 104s14.715-32.865 32.866-32.865S175.341 85.849 175.341 104Z"/><path stroke="url(#c)" stroke-dasharray="0.5 1" stroke-width=".5" d="M189.245 104c0 25.83-20.94 46.769-46.769 46.769-25.83 0-46.77-20.939-46.77-46.769s20.94-46.769 46.77-46.769c25.829 0 46.769 20.94 46.769 46.769Z"/><path stroke="url(#d)" stroke-dasharray="0.5 1" stroke-width=".5" d="M202.975 104c0 33.413-27.087 60.499-60.499 60.499s-60.5-27.086-60.5-60.499 27.087-60.499 60.5-60.499S202.975 70.587 202.975 104Z"/><path stroke="url(#e)" stroke-dasharray="0.5 1" stroke-width=".5" d="M216.705 104c0 40.996-33.234 74.229-74.229 74.229-40.996 0-74.23-33.233-74.23-74.229 0-40.995 33.234-74.229 74.23-74.229 40.995 0 74.229 33.234 74.229 74.229Z"/><path stroke="url(#f)" stroke-dasharray="0.5 1" stroke-width=".5" d="M229.976 104c0 48.325-39.175 87.5-87.5 87.5s-87.5-39.175-87.5-87.5 39.175-87.5 87.5-87.5 87.5 39.175 87.5 87.5Z"/><path stroke="url(#g)" stroke-dasharray="0.5 1" stroke-width=".5" d="M242.944 104c0 55.487-44.981 100.468-100.468 100.468S42.007 159.487 42.007 104 86.99 3.532 142.476 3.532 242.944 48.512 242.944 104Z"/><path stroke="url(#h)" stroke-dasharray="0.5 1" stroke-width=".5" d="M256.369 104c0 62.901-50.992 113.893-113.893 113.893S28.583 166.901 28.583 104 79.574-9.893 142.476-9.893 256.369 41.099 256.369 104Z"/><path stroke="url(#i)" stroke-dasharray="0.5 1" stroke-width=".5" d="M270.708 104c0 70.821-57.411 128.233-128.232 128.233S14.243 174.821 14.243 104 71.655-24.233 142.476-24.233 270.708 33.18 270.708 104Z"/><path stroke="url(#j)" stroke-dasharray="0.5 1" stroke-width=".5" d="M285.354 104c0 78.909-63.969 142.878-142.878 142.878C63.566 246.878-.402 182.909-.402 104c0-78.91 63.968-142.878 142.878-142.878S285.354 25.091 285.354 104Z"/><path stroke="url(#k)" stroke-dasharray="0.5 1" stroke-width=".5" d="M299.389 104c0 86.661-70.253 156.913-156.913 156.913S-14.437 190.661-14.437 104c0-86.66 70.252-156.913 156.913-156.913 86.66 0 156.913 70.252 156.913 156.913Z"/><path stroke="url(#l)" stroke-dasharray="0.5 1" stroke-width=".5" d="M315.56 104c0 95.592-77.493 173.084-173.084 173.084S-30.608 199.592-30.608 104 46.884-69.084 142.476-69.084C238.067-69.084 315.56 8.408 315.56 104Z"/><path stroke="url(#m)" stroke-dasharray="0.5 1" stroke-width=".5" d="M331.425 104c0 104.354-84.596 188.949-188.949 188.949S-46.474 208.354-46.474 104 38.122-84.95 142.476-84.95 331.425-.353 331.425 104Z"/><path stroke="url(#n)" stroke-dasharray="0.5 1" stroke-width=".5" d="M347.727 104c0 113.357-91.894 205.251-205.251 205.251S-62.775 217.357-62.775 104s91.894-205.251 205.251-205.251S347.727-9.357 347.727 104Z"/><path stroke="url(#o)" stroke-dasharray="0.5 1" stroke-width=".5" d="M365.292 104c0 123.058-99.758 222.816-222.816 222.816S-80.341 227.058-80.341 104s99.759-222.816 222.817-222.816S365.292-19.058 365.292 104Z"/><path stroke="url(#p)" stroke-dasharray="0.5 1" stroke-width=".5" d="M383.711 104c0 133.231-108.005 241.236-241.235 241.236S-98.76 237.231-98.76 104c0-133.23 108.005-241.236 241.236-241.236 133.23 0 241.235 108.005 241.235 241.236Z"/><path stroke="url(#q)" stroke-dasharray="0.5 1" stroke-width=".5" d="M399.685 104c0 142.053-115.157 257.209-257.209 257.209S-114.734 246.053-114.734 104 .423-153.209 142.476-153.209c142.052 0 257.209 115.156 257.209 257.209Z"/><rect width="67.549" height="67.549" x="108.701" y="70.226" fill="#121212" stroke="#292929" stroke-width=".5" rx="33.774"/><circle cx="142.5" cy="104" r="19.804" fill="#4d4d4d"/><circle cx="142.476" cy="104" r="15.25" fill="#b4b4b4"/><path fill="#292929" fill-rule="evenodd" d="M161.7 104c0 10.604-8.596 19.2-19.2 19.2s-19.2-8.596-19.2-19.2 8.596-19.2 19.2-19.2 19.2 8.596 19.2 19.2m-14.4-7.2a4.8 4.8 0 1 1-9.6 0 4.8 4.8 0 0 1 9.6 0m-4.8 9.6c-4.842 0-9.014 2.868-10.911 6.998A14.37 14.37 0 0 0 142.5 118.4c4.362 0 8.27-1.939 10.911-5.002-1.897-4.13-6.069-6.998-10.911-6.998" clip-rule="evenodd"/><rect width="136" height="33.2" x="154.25" y="64.179" fill="#121212" stroke="#4d4d4d" stroke-width=".5" rx="5.75"/><path fill="#fafafa" d="M169.284 82.953q-1.071 0-1.52-.48-.432-.48-.432-1.184v-.448q0-.704.432-1.184.449-.48 1.52-.48 1.072 0 1.504.48.448.48.448 1.184v.448q0 .704-.448 1.184-.432.48-1.504.48m10.594 0q-1.072 0-1.52-.48-.432-.48-.432-1.184v-.448q0-.704.432-1.184.448-.48 1.52-.48t1.504.48q.448.48.448 1.184v.448q0 .704-.448 1.184-.432.48-1.504.48m10.594 0q-1.072 0-1.52-.48-.432-.48-.432-1.184v-.448q0-.704.432-1.184.448-.48 1.52-.48t1.504.48q.448.48.448 1.184v.448q0 .704-.448 1.184-.432.48-1.504.48m10.594 0q-1.073 0-1.52-.48-.432-.48-.432-1.184v-.448q0-.704.432-1.184.447-.48 1.52-.48 1.071 0 1.504.48.447.48.448 1.184v.448q0 .704-.448 1.184-.433.48-1.504.48m10.593 0q-1.071 0-1.52-.48-.432-.48-.432-1.184v-.448q0-.704.432-1.184.449-.48 1.52-.48 1.072 0 1.504.48.448.48.448 1.184v.448q0 .704-.448 1.184-.432.48-1.504.48m10.594 0q-1.072 0-1.52-.48-.432-.48-.432-1.184v-.448q0-.704.432-1.184.448-.48 1.52-.48t1.504.48q.448.48.448 1.184v.448q0 .704-.448 1.184-.432.48-1.504.48m10.594 0q-1.072 0-1.52-.48-.432-.48-.432-1.184v-.448q0-.704.432-1.184.448-.48 1.52-.48t1.504.48q.448.48.448 1.184v.448q0 .704-.448 1.184-.432.48-1.504.48m10.594 0q-1.073 0-1.52-.48-.432-.48-.432-1.184v-.448q0-.704.432-1.184.447-.48 1.52-.48 1.071 0 1.504.48.447.48.448 1.184v.448q0 .704-.448 1.184-.433.48-1.504.48m10.593 0q-1.071 0-1.52-.48-.432-.48-.432-1.184v-.448q0-.704.432-1.184.449-.48 1.52-.48 1.072 0 1.504.48.448.48.448 1.184v.448q0 .704-.448 1.184-.432.48-1.504.48m10.594 0q-1.072 0-1.52-.48-.432-.48-.432-1.184v-.448q0-.704.432-1.184.448-.48 1.52-.48t1.504.48q.448.48.448 1.184v.448q0 .704-.448 1.184-.432.48-1.504.48m10.594 0q-1.072 0-1.52-.48-.432-.48-.432-1.184v-.448q0-.704.432-1.184.448-.48 1.52-.48t1.504.48q.448.48.448 1.184v.448q0 .704-.448 1.184-.432.48-1.504.48"/></g><defs><linearGradient id="b" x1="211.508" x2="29.463" y1="24.098" y2="24.098" gradientUnits="userSpaceOnUse"><stop stop-color="#575e61"/><stop offset="1" stop-color="#575e61" stop-opacity="0"/></linearGradient><linearGradient id="c" x1="211.508" x2="29.463" y1="24.098" y2="24.098" gradientUnits="userSpaceOnUse"><stop stop-color="#575e61"/><stop offset="1" stop-color="#575e61" stop-opacity="0"/></linearGradient><linearGradient id="d" x1="211.508" x2="29.463" y1="24.098" y2="24.098" gradientUnits="userSpaceOnUse"><stop stop-color="#575e61"/><stop offset="1" stop-color="#575e61" stop-opacity="0"/></linearGradient><linearGradient id="e" x1="211.508" x2="29.463" y1="24.098" y2="24.098" gradientUnits="userSpaceOnUse"><stop stop-color="#575e61"/><stop offset="1" stop-color="#575e61" stop-opacity="0"/></linearGradient><linearGradient id="f" x1="211.508" x2="29.463" y1="24.098" y2="24.098" gradientUnits="userSpaceOnUse"><stop stop-color="#575e61"/><stop offset="1" stop-color="#575e61" stop-opacity="0"/></linearGradient><linearGradient id="g" x1="211.508" x2="29.463" y1="24.098" y2="24.098" gradientUnits="userSpaceOnUse"><stop stop-color="#575e61"/><stop offset="1" stop-color="#575e61" stop-opacity="0"/></linearGradient><linearGradient id="h" x1="211.508" x2="29.463" y1="24.098" y2="24.098" gradientUnits="userSpaceOnUse"><stop stop-color="#575e61"/><stop offset="1" stop-color="#575e61" stop-opacity="0"/></linearGradient><linearGradient id="i" x1="211.508" x2="29.463" y1="24.098" y2="24.098" gradientUnits="userSpaceOnUse"><stop stop-color="#575e61"/><stop offset="1" stop-color="#575e61" stop-opacity="0"/></linearGradient><linearGradient id="j" x1="211.508" x2="29.463" y1="24.098" y2="24.098" gradientUnits="userSpaceOnUse"><stop stop-color="#575e61"/><stop offset="1" stop-color="#575e61" stop-opacity="0"/></linearGradient><linearGradient id="k" x1="211.508" x2="29.463" y1="24.098" y2="24.098" gradientUnits="userSpaceOnUse"><stop stop-color="#575e61"/><stop offset="1" stop-color="#575e61" stop-opacity="0"/></linearGradient><linearGradient id="l" x1="211.508" x2="29.463" y1="24.098" y2="24.098" gradientUnits="userSpaceOnUse"><stop stop-color="#575e61"/><stop offset="1" stop-color="#575e61" stop-opacity="0"/></linearGradient><linearGradient id="m" x1="211.508" x2="29.463" y1="24.098" y2="24.098" gradientUnits="userSpaceOnUse"><stop stop-color="#575e61"/><stop offset="1" stop-color="#575e61" stop-opacity="0"/></linearGradient><linearGradient id="n" x1="211.508" x2="29.463" y1="24.098" y2="24.098" gradientUnits="userSpaceOnUse"><stop stop-color="#575e61"/><stop offset="1" stop-color="#575e61" stop-opacity="0"/></linearGradient><linearGradient id="o" x1="211.508" x2="29.463" y1="24.098" y2="24.098" gradientUnits="userSpaceOnUse"><stop stop-color="#575e61"/><stop offset="1" stop-color="#575e61" stop-opacity="0"/></linearGradient><linearGradient id="p" x1="211.508" x2="29.463" y1="24.098" y2="24.098" gradientUnits="userSpaceOnUse"><stop stop-color="#575e61"/><stop offset="1" stop-color="#575e61" stop-opacity="0"/></linearGradient><linearGradient id="q" x1="211.508" x2="29.463" y1="24.098" y2="24.098" gradientUnits="userSpaceOnUse"><stop stop-color="#575e61"/><stop offset="1" stop-color="#575e61" stop-opacity="0"/></linearGradient><clipPath id="a"><path fill="#fff" d="M0 0h349v208H0z"/></clipPath></defs></svg>
